X: 1
T: Mealagh Valley, The
M: 2/4
L: 1/8
R: polka
K: Dmaj
DE/D/ DE |FA FA |B/c/B/A/ BA |FA FE |
DE/D/ DE |FA FA |B/c/B/A/ Bc |1 d3 F :|2 d3 B ||
|: Af fe |dc BA |B/c/B/A/ BA |FA FG |
Af fe |dc BA |B/c/B/A/ Bc |1 d3 B :|2 d4 ||
